svg/u1f95f.svg

<svg viewBox="0 0 128 128" xmlns="http://www.w3.org/2000/svg">
  <path d="M11.7,110.26c6.03,4.72,17.15-0.33,17.15-0.33l12.74-4.41l66.47-42.3l8.98-11.6 c0,0,7.75-6.97,7.68-13.07c-0.07-6.06-3.27-8.98-8.33-9.47c-5.06-0.49-13.88,1.47-13.88,1.47s-2.57-8.3-7.49-11.78 c-0.13-0.09-0.12-0.72-0.25-0.8c-1.22-0.78-2.4-1.15-4.04-1.02c-1.65,0.13-3.14,0.46-4.4,0.89c-1.09,0.37-2.03,1.52-2.85,2.01 c-3.06,1.81-4.33,3.35-4.33,3.35l-14.05-3.43l-5.87-4.67c0,0-2.36-0.86-5.36-0.08c-2.69,0.7-4.14,1.89-4.84,2.46 c-0.3,0.25-3.52,13.72-3.52,13.72l-22.54,3.1c0,0-1.96,0.82-3.59,3.43c-1.63,2.61-2.21,7.1-2.21,7.1l2.7,15.76L7.86,67.28 c0,0-1.59,1.55-2.74,4.65c-1.14,3.1-0.97,5.6-0.9,6.94c0.06,1.03,9.11,9.5,9.11,9.5l-5.55,14.05 C7.78,102.43,7.94,107.33,11.7,110.26z" fill="#FFE5B2"/>
  <path d="M55.18,50.94C38.11,61.26,36.23,77.4,36.89,88.01s3.43,18.13,3.43,18.13s20.25-3.27,40.51-17.31 s27.28-25.64,27.28-25.64s-8.21-10.04-20.09-15.84C74.84,40.91,62.2,46.69,55.18,50.94z" fill="#FACE90"/>
  <path d="M94.81,17.94c0,0-5.41,16.68,4.44,20.98c12.84,5.61,17.17-9.87,17.17-9.87s-5.87-0.73-9.32-2.42 C101.02,23.65,94.81,17.94,94.81,17.94z" fill="#FACE90"/>
  <path d="M59.04,15.08c0,0,0.25,15.53,13.54,17.39c13.29,1.86,13.79-14.66,13.79-14.66s-4.09,1.99-11.05,1.99 c-5.84,0-7.95-2.24-10.68-3.35C61.11,15.01,59.04,15.08,59.04,15.08z" fill="#FACE90"/>
  <path d="M23.05,34.21c0,0,10.84,13.83,23.49,5.15c10.68-7.33,2.52-21.85,2.52-21.85s-6.87,8.86-10.46,10.8 C31.79,31.98,23.05,34.21,23.05,34.21z" fill="#FACE90"/>
  <path d="M17.31,44.02c0,0,15.66,9.98,9.95,20.05c-5.71,10.06-19.39,3.18-19.39,3.18s7.45-5.09,8.94-8.69 S16.07,48.49,17.31,44.02z" fill="#FACE90"/>
  <path d="M19.84,88.13c0.41,6.35-9.21,12.54-12,14.27c-0.62-3.99,1.39-8.32,0.89-12.54 c-0.51-4.26-4.79-7.5-4.46-11.02C8.01,79.02,19.3,79.81,19.84,88.13z" fill="#FACE90"/>
  <path d="M61.08,41.61c0.56,1.55,2.63,1.4,5.3,0.73c2.56-0.64,4.02-1.01,4.02-2.56c0-2.02-3.02-2.47-4.93-2.01 C63.55,38.23,60.35,39.6,61.08,41.61z" fill="#FFFFFF"/>
  <path d="M57.34,43.62c0.55,2.47-9.5,5.89-15.72,14.25c-9.78,13.16-7.4,22.84-10.05,23.39 c-2.51,0.52-3.23-9.8,0.15-17.56s9.23-14.04,13.65-17.16C50.66,42.8,56.79,41.17,57.34,43.62z" fill="#FFFFFF"/>
</svg>

<svg viewBox="0 0 128 128" xmlns="http://www.w3.org/2000/svg">
  <defs/>
  <path d="M11.7,110.26 C17.73,114.98 28.85,109.93 28.85,109.93 L41.59,105.52 L108.06,63.22 L117.04,51.62 C117.04,51.62 124.79,44.65 124.72,38.55 C124.65,32.49 121.45,29.57 116.39,29.08 C111.33,28.59 102.51,30.55 102.51,30.55 C102.51,30.55 99.94,22.25 95.02,18.77 C94.89,18.68 94.9,18.05 94.77,17.97 C93.55,17.19 92.37,16.82 90.73,16.95 C89.08,17.08 87.59,17.41 86.33,17.84 C85.24,18.21 84.3,19.36 83.48,19.85 C80.42,21.66 79.15,23.2 79.15,23.2 L65.1,19.77 L59.23,15.1 C59.23,15.1 56.87,14.24 53.87,15.02 C51.18,15.72 49.73,16.91 49.03,17.48 C48.73,17.73 45.51,31.2 45.51,31.2 L22.97,34.3 C22.97,34.3 21.01,35.12 19.38,37.73 C17.75,40.34 17.17,44.83 17.17,44.83 L19.87,60.59 L7.86,67.28 C7.86,67.28 6.27,68.83 5.12,71.93 C3.98,75.03 4.15,77.53 4.22,78.87 C4.28,79.9 13.33,88.37 13.33,88.37 L7.78,102.42 C7.78,102.43 7.94,107.33 11.7,110.26 Z" fill="#FFE5B2"/>
  <path d="M55.18,50.94 C38.11,61.26 36.23,77.4 36.89,88.01 C37.55,98.62 40.32,106.14 40.32,106.14 C40.32,106.14 60.57,102.87 80.83,88.83 C101.09,74.79 108.11,63.19 108.11,63.19 C108.11,63.19 99.9,53.15 88.02,47.35 C74.84,40.91 62.2,46.69 55.18,50.94 Z" fill="#FACE90"/>
  <path d="M94.81,17.94 C94.81,17.94 89.4,34.62 99.25,38.92 C112.09,44.53 116.42,29.05 116.42,29.05 C116.42,29.05 110.55,28.32 107.1,26.63 C101.02,23.65 94.81,17.94 94.81,17.94 Z" fill="#FACE90"/>
  <path d="M59.04,15.08 C59.04,15.08 59.29,30.61 72.58,32.47 C85.87,34.33 86.37,17.81 86.37,17.81 C86.37,17.81 82.28,19.8 75.32,19.8 C69.48,19.8 67.37,17.56 64.64,16.45 C61.11,15.01 59.04,15.08 59.04,15.08 Z" fill="#FACE90"/>
  <path d="M23.05,34.21 C23.05,34.21 33.89,48.04 46.54,39.36 C57.22,32.03 49.06,17.51 49.06,17.51 C49.06,17.51 42.19,26.37 38.6,28.31 C31.79,31.98 23.05,34.21 23.05,34.21 Z" fill="#FACE90"/>
  <path d="M17.31,44.02 C17.31,44.02 32.97,54 27.26,64.07 C21.55,74.13 7.87,67.25 7.87,67.25 C7.87,67.25 15.32,62.16 16.81,58.56 C18.3,54.96 16.07,48.49 17.31,44.02 Z" fill="#FACE90"/>
  <path d="M19.84,88.13 C20.25,94.48 10.63,100.67 7.84,102.4 C7.22,98.41 9.23,94.08 8.73,89.86 C8.22,85.6 3.94,82.36 4.27,78.84 C8.01,79.02 19.3,79.81 19.84,88.13 Z" fill="#FACE90"/>
  <path d="M61.08,41.61 C61.64,43.16 63.71,43.01 66.38,42.34 C68.94,41.7 70.4,41.33 70.4,39.78 C70.4,37.76 67.38,37.31 65.47,37.77 C63.55,38.23 60.35,39.6 61.08,41.61 Z" fill="#FFFFFF"/>
  <path d="M57.34,43.62 C57.89,46.09 47.84,49.51 41.62,57.87 C31.84,71.03 34.22,80.71 31.57,81.26 C29.06,81.78 28.34,71.46 31.72,63.7 C35.1,55.94 40.95,49.66 45.37,46.54 C50.66,42.8 56.79,41.17 57.34,43.62 Z" fill="#FFFFFF"/>
</svg>
